archdroid-icon-theme/Archdroid-Orange/apps/scalable/system-file-manager-debian-color.svg

<svg fill="#FF9800" height="48" viewBox="0 0 48 48" width="48" xmlns="http://www.w3.org/2000/svg"><path d="m20 5-4 4v4h-8c-2.21 0-3.980469 1.79-3.980469 4l-.019531 22c0 2.21 1.79 4 4 4h32c2.21 0 4-1.79 4-4v-22c0-2.21-1.79-4-4-4h-8v-4l-4-4zm0 4h8v4h-8zm5.201172 9c-.237705.054032-.565004.017547-.789063.099609l-.132812-.019531c.303908-.039279.612066-.054076.921875-.080078zm-1.353516.142578c-.158961.088886-.31584.159112-.464843.263672.603685-.144015.576191.057201 1.191406-.023437-.216317.031758-.47747.117661-.435547.15039.690062.080034.794613-.212809 1.433594 0l-.039063-.189453c.887381.320505 1.072645.26579 2.03711.777344.338945.016412.373027-.208199.884765 0 .089992.158039-.020678.186563.607422.560547.070076-.027846-.124761-.204261-.279297-.345703 1.263024.674571 2.636077 2.114104 3.054688 3.654296-.391872-.722518-.041162.369114-.175782.3125.174637.471168.317734.958236.40625 1.460938-.115994-.412894-.369178-1.408481-.8125-2.050781-.036144.414553-.571771-.287277-.279296.625.222951.323086.045541-.326206.320312.248047.004241.272926.109435.54271.169922.898437-.094418-.01549-.210143-.392223-.279297-.287109.09534.447378.252751.680543.3125.714843-.030612.074871-.109886-.069901-.115234.234375.036513.700574.196245.404122.271484.4375-.076346.344663-.384745.750688-.232422 1.34375-.043705-.179615-.1304-.359086-.195312-.529296-.060118.506389.112738.605033-.121094 1.21875.168551-.55323.150964-1.052971-.007813-.8125.070261.786324-.621745 1.389549-.546875 1.886718l-.203125-.277343c-.5453.790565-.012148.436192-.382812 1.035156.136094-.235307-.071749-.096809.105469-.363281-.117654.006823-.52593.500754-.898438.791015-1.465137 1.174507-3.212997 1.327839-4.90625.695313-.065834.054032.301367.341054.572266.480468.644697.238442 1.37515.249723 1.949219.228516-1.24108.51893-3.609691-.528331-4.384766-1.916016.175374.038173.775018.976584 1.224609 1.128907-.265735-.212994-.471614-.484844-.662109-.763672.359046.412709.796553.749336 1.273437.972656-.030612-.115994.132153-.138693-.09375-.291016-1.436-1.100005-2.284737-2.034798-1.990234-4.199218.218895-.165232.276964-1.068503.779297-1.384766.30612-.676416 1.22457-1.298963 2.205078-1.314453 1.000977-.055139 1.845204.53477 2.269531 1.089844-.772493-.719937-2.036805-.940117-3.115234-.40625-1.102772.496431-1.757449 1.710745-1.662109 2.919922.040939-.060303.077924-.022688.097656-.171875-.033747 2.35012 2.531118 4.072249 4.378906 3.203125l.023438.048828c.749073-.204327.650832-.372621 1.140625-.708985-.038173.078928-.328196.279331-.154297.283203.238442-.063252.981786-.754779 1.347656-1.080078.167813-.361997-.089854-.19722.144531-.652343l.28711-.142579c.158929-.45966.335577-.71949.316406-1.253906l-.167969.351563c.246003-.744832.104003-1.554733.138672-2.25586l-.068359-.019531c-.060118-1.763881-1.584334-3.639252-2.941407-4.273437-1.169528-.540322-2.970861-.631603-3.802734-.22461.114518-.101425.570979-.144466.433594-.222656-1.302488.129456-1.01137.453945-2.009766.708984-.273849.264444.800228-.211959.222656.13086-.535526.147712-.786562-.092662-1.580078.728515.070629.114334.503837-.338598.142578.115235-.745754-.092574-2.355369 1.706352-2.697265 2.302734l.179687.03125c-.293581.735427-.679865 1.203976-.732422 1.644531-.075792 1.082671-.455071 3.058569.070313 3.666016l-.050781.507812c.072104.14384.127173.290794.216796.425782l-.117187.007812c.552677 1.743228.592555.033213 1.322266 1.84375-.105852-.035591-.211068-.075004-.365235-.283203-.018441.158777.222748.635304.511719 1.007813l-.121094.138671c.160806.292106.308354.357006.419922.458985-.600439-.327697.557549 1.080334.662109 1.259765l.091797-.164062c-.013277.236229.168716.541623.511719.964844l.287109-.011719c.117654.232541.547654.652143.808594.671875l-.173828.226562c.655024.207462.317913.275634 1.123047.560547l-.162109-.287109c.410865.35628.537586.668479 1.117187.941406.803659.280119.909509.168437 1.734375.404297-.699098-.020285-1.521542-.01325-2.074219-.210937-3.770631-1.021632-7.219069-5.444336-6.966797-10-.058089-.922419.091114-2.075098-.0625-2.304688.215576-.701864.466418-1.557676.96875-2.576172-.036328-.068232.082483.19888.337891-.236328.154904-.340236.281272-.714275.476563-1.044922l.099609-.023437c.100503-.583474 1.361054-1.479174 1.736328-1.929688l.027344.173828c.818964-.767883 2.277878-1.283783 3.099609-1.65039-.21576.238811.48252-.024076.986328-.054688zm.498047.115235c.590665.016781.546962.055241.353516.097656l-.007813.015625-.115234.011719.123047-.027344c.028768-.04223-.176667-.065938-.353516-.097656zm-7.800781 4.023437c-.00332.198056.333374-.194584.091797.349609-.450698.315157-.040162.128382-.091797-.349609zm-.367188 1.519531c-.039648.18441-.058286.374699-.162109.69336.030243-.249507-.124833-.326568.162109-.69336zm11.810547 2.214844c.040985-.001037.068837.100062.048828.398438-.059748.240286-.108144-.147601-.169921-.179688.026462-.113873.080108-.217713.121093-.21875zm3.623047 1.005859c-.088517.680104-.298594 1.351128-.625 1.964844.295425-.581629.486918-1.209748.576172-1.84375zm-3.83789.222657c-.050713.308333-.19526.606532-.392579.878906.024158-.234201-.550854.102.115235-.736328-.057905.236229-.61748.856824.001953.466797.112306-.20027.231132-.389559.275391-.609375zm-1.351563 1.28125c-.096631.091836-.204721.185985-.324219.279297-.432626-.066573-.825525-.233672-.49414-.238282.276246.025264.548936.025003.818359-.041015zm-4.181641.041015c.076346.152876.14451.306167.259766.433594l.101563.300781c-.13923-.234754-.288302-.465689-.361329-.734375zm-.253906.455078c.27348.527966.421009.689498.621094 1.080079-.27809-.231251-.450181-.551863-.667969-.847657z" fill="#a80030"/></svg>

<svg fill="#FF9800" height="48" version="1.1" viewBox="0 0 48 48" width="48" xmlns="http://www.w3.org/2000/svg"><path d="M20 5L16 9 16 13 8 13C5.79 13 4.019531 14.79 4.019531 17L4 39C4 41.21 5.79 43 8 43L40 43C42.21 43 44 41.21 44 39L44 17C44 14.79 42.21 13 40 13L32 13 32 9 28 5 20 5zM20 9L28 9 28 13 20 13 20 9zM25.201172 18C24.963467 18.054032 24.636168 18.017547 24.412109 18.099609L24.279297 18.080078C24.583205 18.040799 24.891363 18.026002 25.201172 18zM23.847656 18.142578C23.688695 18.231464 23.531816 18.30169 23.382813 18.40625 23.986498 18.262235 23.959004 18.463451 24.574219 18.382813 24.357902 18.414571 24.096749 18.500474 24.138672 18.533203 24.828734 18.613237 24.933285 18.320394 25.572266 18.533203L25.533203 18.34375C26.420584 18.664255 26.605848 18.60954 27.570313 19.121094 27.909258 19.137506 27.94334 18.912895 28.455078 19.121094 28.54507 19.279133 28.4344 19.307657 29.0625 19.681641 29.132576 19.653795 28.937739 19.47738 28.783203 19.335938 30.046227 20.010509 31.41928 21.450042 31.837891 22.990234 31.446019 22.267716 31.796729 23.359348 31.662109 23.302734 31.836746 23.773902 31.979843 24.26097 32.068359 24.763672 31.952365 24.350778 31.699181 23.355191 31.255859 22.712891 31.219715 23.127444 30.684088 22.425614 30.976563 23.337891 31.199514 23.660977 31.022104 23.011685 31.296875 23.585938 31.301116 23.858864 31.40631 24.128648 31.466797 24.484375 31.372379 24.468885 31.256654 24.092152 31.1875 24.197266 31.28284 24.644644 31.440251 24.877809 31.5 24.912109 31.469388 24.98698 31.390114 24.842208 31.384766 25.146484 31.421279 25.847058 31.581011 25.550606 31.65625 25.583984 31.579904 25.928647 31.271505 26.334672 31.423828 26.927734 31.380123 26.748119 31.293428 26.568648 31.228516 26.398438 31.168398 26.904827 31.341254 27.003471 31.107422 27.617188 31.275973 27.063958 31.258386 26.564217 31.099609 26.804688 31.16987 27.591012 30.477864 28.194237 30.552734 28.691406L30.349609 28.414063C29.804309 29.204628 30.337461 28.850255 29.966797 29.449219 30.102891 29.213912 29.895048 29.35241 30.072266 29.085938 29.954612 29.092761 29.546336 29.586692 29.173828 29.876953 27.708691 31.05146 25.960831 31.204792 24.267578 30.572266 24.201744 30.626298 24.568945 30.91332 24.839844 31.052734 25.484541 31.291176 26.214994 31.302457 26.789063 31.28125 25.547983 31.80018 23.179372 30.752919 22.404297 29.365234 22.579671 29.403407 23.179315 30.341818 23.628906 30.494141 23.363171 30.281147 23.157292 30.009297 22.966797 29.730469 23.325843 30.143178 23.76335 30.479805 24.240234 30.703125 24.209622 30.587131 24.372387 30.564432 24.146484 30.412109 22.710484 29.312104 21.861747 28.377311 22.15625 26.212891 22.375145 26.047659 22.433214 25.144388 22.935547 24.828125 23.241667 24.151709 24.160117 23.529162 25.140625 23.513672 26.141602 23.458533 26.985829 24.048442 27.410156 24.603516 26.637663 23.883579 25.373351 23.663399 24.294922 24.197266 23.19215 24.693697 22.537473 25.908011 22.632813 27.117188 22.673752 27.056885 22.710737 27.0945 22.730469 26.945313 22.696722 29.295433 25.261587 31.017562 27.109375 30.148438L27.132813 30.197266C27.881886 29.992939 27.783645 29.824645 28.273438 29.488281 28.235265 29.567209 27.945242 29.767612 28.119141 29.771484 28.357583 29.708232 29.100927 29.016705 29.466797 28.691406 29.63461 28.329409 29.376943 28.494186 29.611328 28.039063L29.898438 27.896484C30.057367 27.436824 30.234015 27.176994 30.214844 26.642578L30.046875 26.994141C30.292878 26.249309 30.150878 25.439408 30.185547 24.738281L30.117188 24.71875C30.05707 22.954869 28.532854 21.079498 27.175781 20.445313 26.006253 19.904991 24.20492 19.81371 23.373047 20.220703 23.487565 20.119278 23.944026 20.076237 23.806641 19.998047 22.504153 20.127503 22.795271 20.451992 21.796875 20.707031 21.523026 20.971475 22.597103 20.495072 22.019531 20.837891 21.484005 20.985603 21.232969 20.745229 20.439453 21.566406 20.510082 21.68074 20.94329 21.227808 20.582031 21.681641 19.836277 21.589067 18.226662 23.387993 17.884766 23.984375L18.064453 24.015625C17.770872 24.751052 17.384588 25.219601 17.332031 25.660156 17.256239 26.742827 16.87696 28.718725 17.402344 29.326172L17.351563 29.833984C17.423667 29.977824 17.478736 30.124778 17.568359 30.259766L17.451172 30.267578C18.003849 32.010806 18.043727 30.300791 18.773438 32.111328 18.667586 32.075737 18.56237 32.036324 18.408203 31.828125 18.389762 31.986902 18.630951 32.463429 18.919922 32.835938L18.798828 32.974609C18.959634 33.266715 19.107182 33.331615 19.21875 33.433594 18.618311 33.105897 19.776299 34.513928 19.880859 34.693359L19.972656 34.529297C19.959379 34.765526 20.141372 35.07092 20.484375 35.494141L20.771484 35.482422C20.889138 35.714963 21.319138 36.134565 21.580078 36.154297L21.40625 36.380859C22.061274 36.588321 21.724163 36.656493 22.529297 36.941406L22.367188 36.654297C22.778053 37.010577 22.904774 37.322776 23.484375 37.595703 24.288034 37.875822 24.393884 37.76414 25.21875 38 24.519652 37.979715 23.697208 37.98675 23.144531 37.789063 19.3739 36.767431 15.925462 32.344727 16.177734 27.789063 16.119645 26.866644 16.268848 25.713965 16.115234 25.484375 16.33081 24.782511 16.581652 23.926699 17.083984 22.908203 17.047656 22.839971 17.166467 23.107083 17.421875 22.671875 17.576779 22.331639 17.703147 21.9576 17.898438 21.626953L17.998047 21.603516C18.09855 21.020042 19.359101 20.124342 19.734375 19.673828L19.761719 19.847656C20.580683 19.079773 22.039597 18.563873 22.861328 18.197266 22.645568 18.436077 23.343848 18.17319 23.847656 18.142578zM24.345703 18.257813C24.936368 18.274594 24.892665 18.313054 24.699219 18.355469L24.691406 18.371094 24.576172 18.382813 24.699219 18.355469C24.727987 18.313239 24.522552 18.289531 24.345703 18.257813zM16.544922 22.28125C16.541602 22.479306 16.878296 22.086666 16.636719 22.630859 16.186021 22.946016 16.596557 22.759241 16.544922 22.28125zM16.177734 23.800781C16.138086 23.985191 16.119448 24.17548 16.015625 24.494141 16.045868 24.244634 15.890792 24.167573 16.177734 23.800781zM27.988281 26.015625C28.029266 26.014588 28.057118 26.115687 28.037109 26.414063 27.977361 26.654349 27.928965 26.266462 27.867188 26.234375 27.89365 26.120502 27.947296 26.016662 27.988281 26.015625zM31.611328 27.021484C31.522811 27.701588 31.312734 28.372612 30.986328 28.986328 31.281753 28.404699 31.473246 27.77658 31.5625 27.142578L31.611328 27.021484zM27.773438 27.244141C27.722725 27.552474 27.578178 27.850673 27.380859 28.123047 27.405017 27.888846 26.830005 28.225047 27.496094 27.386719 27.438189 27.622948 26.878614 28.243543 27.498047 27.853516 27.610353 27.653246 27.729179 27.463957 27.773438 27.244141zM26.421875 28.525391C26.325244 28.617227 26.217154 28.711376 26.097656 28.804688 25.66503 28.738115 25.272131 28.571016 25.603516 28.566406 25.879762 28.59167 26.152452 28.591409 26.421875 28.525391zM22.240234 28.566406C22.31658 28.719282 22.384744 28.872573 22.5 29L22.601563 29.300781C22.462333 29.066027 22.313261 28.835092 22.240234 28.566406zM21.986328 29.021484C22.259808 29.54945 22.407337 29.710982 22.607422 30.101563 22.329332 29.870312 22.157241 29.5497 21.939453 29.253906L21.986328 29.021484z" fill="#a80030"/></svg>
